X: 41533
T: Uncle Stewart's
R: waltz
M: 3/4
K: Dmajor
AAd|:f2A3d|f3 g gf|e2c3A|d2 de dc|
B2G3B|A2F3A|G2E A2F|1 D3 AAd:|2 D2F/z3/2F/z3/2||
A,2D3E|F3 G GF|E2C3B|A4AA|
A2E3F|G2c3B|A2G3B|A2F3A,|
A,2D3E|F3 G GF|E2C3B|A4A/B/c|
d2d ed/c/B|A2F A2F|G2E A2F|D6||

